_includes/icons/ios-tumblr.svg

<svg fill="#666" height="50" viewBox="0 0 50 50" width="50" xmlns="http://www.w3.org/2000/svg"><path d="m10 0c-5.511719 0-10 4.488281-10 10v30c0 5.511719 4.488281 10 10 10h30c5.511719 0 10-4.488281 10-10v-30c0-5.511719-4.488281-10-10-10zm0 2h30c4.433594 0 8 3.566406 8 8v30c0 4.433594-3.566406 8-8 8h-30c-4.433594 0-8-3.566406-8-8v-30c0-4.433594 3.566406-8 8-8zm10.5 6c-.777344 0-1.4375.660156-1.4375 1.4375 0 2.820313-1.480469 4.761719-3.03125 6.09375-.773437.664063-1.5625 1.148438-2.15625 1.46875-.296875.160156-.515625.296875-.6875.375s-.382812.140625-.25.09375c-.011719 0-.019531 0-.03125 0-.546875.214844-.90625.757813-.90625 1.34375v3.78125c0 .777344.691406 1.40625 1.4375 1.40625h2.5625v9.65625c0 .558594.058594 2.996094 1.15625 5.4375s3.464844 4.90625 7.59375 4.90625c6.515625 0 9.554688-2.515625 9.75-2.6875h.03125c.304688-.269531.46875-.652344.46875-1.0625v-4.5c0-.519531-.296875-1-.75-1.25-.445312-.25-.992187-.253906-1.4375.03125.117188-.074219-.003906 0-.0625.03125s-.167969.097656-.28125.15625c-.226562.117188-.53125.28125-.9375.4375-.8125.3125-1.9375.59375-3.09375.59375-1.289062 0-1.738281-.476562-2.0625-1.03125-.160156-.277344-.257812-.570312-.3125-.8125-.054687-.242187-.0625-.496094-.0625-.40625v-9.5h5.5625c.824219 0 1.4375-.660156 1.4375-1.4375v-5.125c0-.777344-.621094-1.4375-1.4375-1.4375h-5.5625v-6.5625c0-.777344-.660156-1.4375-1.4375-1.4375zm.5 2h3v7c0 .550781.449219 1 1 1h6v4h-6c-.550781 0-1 .449219-1 1v10.5c0 .214844.035156.449219.125.84375s.234375.867188.53125 1.375c.589844 1.015625 1.863281 2.03125 3.78125 2.03125 1.5 0 2.84375-.375 3.8125-.75.3125-.121094.519531-.203125.75-.3125v3.21875c-.242187.207031-2.511719 2.09375-8.25 2.09375-3.386719 0-4.886719-1.730469-5.78125-3.71875s-.96875-4.226562-.96875-4.625v-10.65625c0-.550781-.449219-1-1-1h-3v-2.8125c.210938-.09375.5-.25.84375-.4375.6875-.371094 1.585938-.90625 2.5-1.6875 1.71875-1.476562 3.457031-3.847656 3.65625-7.0625z"/></svg>

<svg xmlns="http://www.w3.org/2000/svg" viewBox="0 0 50 50" width="50" height="50" fill="#666"><path d="M 10 0 C 4.488281 0 0 4.488281 0 10 L 0 40 C 0 45.511719 4.488281 50 10 50 L 40 50 C 45.511719 50 50 45.511719 50 40 L 50 10 C 50 4.488281 45.511719 0 40 0 Z M 10 2 L 40 2 C 44.433594 2 48 5.566406 48 10 L 48 40 C 48 44.433594 44.433594 48 40 48 L 10 48 C 5.566406 48 2 44.433594 2 40 L 2 10 C 2 5.566406 5.566406 2 10 2 Z M 20.5 8 C 19.722656 8 19.0625 8.660156 19.0625 9.4375 C 19.0625 12.257813 17.582031 14.199219 16.03125 15.53125 C 15.257813 16.195313 14.46875 16.679688 13.875 17 C 13.578125 17.160156 13.359375 17.296875 13.1875 17.375 C 13.015625 17.453125 12.804688 17.515625 12.9375 17.46875 C 12.925781 17.46875 12.917969 17.46875 12.90625 17.46875 C 12.359375 17.683594 12 18.226563 12 18.8125 L 12 22.59375 C 12 23.371094 12.691406 24 13.4375 24 L 16 24 L 16 33.65625 C 16 34.214844 16.058594 36.652344 17.15625 39.09375 C 18.253906 41.535156 20.621094 44 24.75 44 C 31.265625 44 34.304688 41.484375 34.5 41.3125 C 34.511719 41.3125 34.519531 41.3125 34.53125 41.3125 C 34.835938 41.042969 35 40.660156 35 40.25 L 35 35.75 C 35 35.230469 34.703125 34.75 34.25 34.5 C 33.804688 34.25 33.257813 34.246094 32.8125 34.53125 C 32.929688 34.457031 32.808594 34.53125 32.75 34.5625 C 32.691406 34.59375 32.582031 34.660156 32.46875 34.71875 C 32.242188 34.835938 31.9375 35 31.53125 35.15625 C 30.71875 35.46875 29.59375 35.75 28.4375 35.75 C 27.148438 35.75 26.699219 35.273438 26.375 34.71875 C 26.214844 34.441406 26.117188 34.148438 26.0625 33.90625 C 26.007813 33.664063 26 33.410156 26 33.5 L 26 24 L 31.5625 24 C 32.386719 24 33 23.339844 33 22.5625 L 33 17.4375 C 33 16.660156 32.378906 16 31.5625 16 L 26 16 L 26 9.4375 C 26 8.660156 25.339844 8 24.5625 8 Z M 21 10 L 24 10 L 24 17 C 24 17.550781 24.449219 18 25 18 L 31 18 L 31 22 L 25 22 C 24.449219 22 24 22.449219 24 23 L 24 33.5 C 24 33.714844 24.035156 33.949219 24.125 34.34375 C 24.214844 34.738281 24.359375 35.210938 24.65625 35.71875 C 25.246094 36.734375 26.519531 37.75 28.4375 37.75 C 29.9375 37.75 31.28125 37.375 32.25 37 C 32.5625 36.878906 32.769531 36.796875 33 36.6875 L 33 39.90625 C 32.757813 40.113281 30.488281 42 24.75 42 C 21.363281 42 19.863281 40.269531 18.96875 38.28125 C 18.074219 36.292969 18 34.054688 18 33.65625 L 18 23 C 18 22.449219 17.550781 22 17 22 L 14 22 L 14 19.1875 C 14.210938 19.09375 14.5 18.9375 14.84375 18.75 C 15.53125 18.378906 16.429688 17.84375 17.34375 17.0625 C 19.0625 15.585938 20.800781 13.214844 21 10 Z"/></svg>
